X:1
T:Major Molle (strathspey)
T:Major Molle (strathspey)
T:Andrew Gow
C:Andrew Gow
L:1/8
M:2/2
K:G
V:1 treble 
V:1
 B/ |]"Am" A<e e>d c>d B>c |"Am" A<e e>d"Em" c2 B<c |"Am" A<e e>f g>f g>e | %4
"G" d>B G>B"^E(m)7" e>d c>B ||"Am" A<e e>d c>d B>c |"Am" A<e e>d"Em" c2 B<c | %7
"Am" A<e e>f"^(F#)" g/f/e/f/ g>e |"G" d>B G>B"^E(m)7" e>d c>B |]"Am" A<E E2 A>E c>B | %10
"Am" A<E E2"Em" c2 B<c |"Am" A<E E2 e>f g>e |"G" d>B G>B"^E(m)7" e>d c>B ||"Am" A<E E2 A>E c>B | %14
"Am" A<E E2"Em" c2 B<c |"Am" A<e e>f"^(F#)" g/f/e/f/ g>e |"G" d>B G>B"^E(m)7" e>d c>B |] %17
"Am" !fermata!A4 |] %18

